icons/shopping-bag.svg

<svg width="24" height="24" viewBox="0 0 24 24" fill="none" xmlns="http://www.w3.org/2000/svg">
<path fill-rule="evenodd" clip-rule="evenodd" d="M6.35621 4.05801C6.3565 4.05772 6.3595 4.05492 6.36702 4.05586C7.4378 4.18992 10.109 4.5 12 4.5C13.891 4.5 16.5622 4.18992 17.633 4.05586C17.6405 4.05492 17.6435 4.05772 17.6438 4.05801L19.1497 5.56395C18.6875 5.70924 18.1434 5.87272 17.5518 6.03608C17.4638 6.06038 17.375 6.08461 17.2855 6.10872H6.71453C6.625 6.08461 6.53617 6.06038 6.44817 6.03608C5.85661 5.87272 5.31254 5.70924 4.85027 5.56395L6.35621 4.05801ZM6.71457 6.10873C6.71456 6.10873 6.71454 6.10872 6.71453 6.10872H2.00593C1.97297 5.80734 2.07852 5.50727 2.2929 5.29289L4.942 2.64379C5.38386 2.20194 6.00256 1.99461 6.61549 2.07135C7.6961 2.20665 10.2506 2.5 12 2.5C13.7494 2.5 16.3039 2.20665 17.3845 2.07135C17.9974 1.99461 18.6162 2.20194 19.058 2.64379L21.7071 5.29289C21.9215 5.50727 22.027 5.80734 21.9941 6.10874L17.2855 6.10872C17.2855 6.10872 17.2855 6.10872 17.2855 6.10872L6.71457 6.10873ZM6.71457 6.10873C8.4554 6.57749 10.4656 7 12 7C13.5344 7 15.5446 6.57748 17.2855 6.10872L21.9941 6.10874L21.9941 6.10881L21.994 6.1093L21.9938 6.11152L21.9928 6.12084L21.9887 6.15854L21.9731 6.30616C21.9596 6.43517 21.9403 6.62327 21.917 6.85834C21.8706 7.32866 21.8086 7.98618 21.7466 8.73421C21.622 10.2381 21.5 12.079 21.5 13.5C21.5 15.4784 21.7359 18.2568 21.8834 19.7962C21.996 20.9707 21.0753 22 19.8847 22H4.11535C2.92472 22 2.00405 20.9707 2.1166 19.7962C2.2641 18.2568 2.50001 15.4784 2.50001 13.5C2.50001 12.079 2.37801 10.2381 2.25342 8.73421C2.19145 7.98618 2.12946 7.32866 2.08298 6.85834C2.05975 6.62327 2.04041 6.43517 2.02692 6.30616L2.01131 6.15854L2.00725 6.12084L2.00624 6.11152L2.006 6.1093L2.00594 6.10881L2.00594 6.10874L6.71457 6.10873ZM4.24659 8.56909C4.21278 8.16088 4.17896 7.77931 4.14759 7.43943C4.65028 7.5986 5.25407 7.78119 5.91581 7.96392C7.73797 8.4671 10.0986 9 12 9C13.9014 9 16.262 8.4671 18.0842 7.96392C18.7459 7.78119 19.3497 7.5986 19.8524 7.43943C19.821 7.77931 19.7872 8.16088 19.7534 8.56909C19.628 10.083 19.5 11.9921 19.5 13.5C19.5 15.5848 19.7452 18.4498 19.8925 19.9869C19.8928 19.9895 19.8926 19.9907 19.8926 19.991L19.8924 19.9921L19.8916 19.9937C19.8912 19.9945 19.8906 19.9955 19.8898 19.9965C19.8895 19.9968 19.8893 19.9972 19.889 19.9975C19.8878 19.9988 19.8868 19.9996 19.8862 20L19.8847 20H4.11535L4.1138 20C4.11325 19.9996 4.11224 19.9988 4.11103 19.9975C4.10899 19.9952 4.108 19.9931 4.10766 19.9921L4.10741 19.991C4.10737 19.9907 4.10724 19.9895 4.10748 19.9869C4.25478 18.4498 4.50001 15.5848 4.50001 13.5C4.50001 11.9921 4.37201 10.083 4.24659 8.56909ZM10 13C10 12.4477 9.55229 12 9.00001 12C8.44772 12 8.00001 12.4477 8.00001 13C8.00001 14.0609 8.42143 15.0783 9.17158 15.8284C9.92173 16.5786 10.9391 17 12 17C13.0609 17 14.0783 16.5786 14.8284 15.8284C15.5786 15.0783 16 14.0609 16 13C16 12.4477 15.5523 12 15 12C14.4477 12 14 12.4477 14 13C14 13.5304 13.7893 14.0391 13.4142 14.4142C13.0391 14.7893 12.5304 15 12 15C11.4696 15 10.9609 14.7893 10.5858 14.4142C10.2107 14.0391 10 13.5304 10 13Z" fill="#333333"/>
</svg>

<svg xmlns="http://www.w3.org/2000/svg" width="24" height="24" fill="none" viewBox="0 0 24 24">
  <path fill="#333" fill-rule="evenodd" d="M6.356 4.058s.003-.003.011-.002c1.07.134 3.742.444 5.633.444s4.562-.31 5.633-.444c.008-.001.01.002.01.002l1.507 1.506a47.697 47.697 0 01-1.864.545H6.714a43.369 43.369 0 01-1.865-.545l1.506-1.506zm.359 2.05h-4.71a1 1 0 01.288-.815l2.649-2.65a2.012 2.012 0 011.673-.572c1.081.136 3.636.429 5.385.429 1.75 0 4.304-.293 5.384-.429a2.012 2.012 0 011.674.573l2.65 2.649a1 1 0 01.286.816H6.715zm0 0C8.455 6.579 10.465 7 12 7c1.534 0 3.545-.423 5.285-.891h4.71-.001v.003l-.001.009-.004.038-.016.147a103.622 103.622 0 00-.226 2.428c-.125 1.504-.247 3.345-.247 4.766 0 1.978.236 4.757.383 6.296A2.01 2.01 0 0119.885 22H4.115a2.01 2.01 0 01-1.998-2.204c.147-1.54.383-4.318.383-6.296 0-1.421-.122-3.262-.247-4.766a120.4 120.4 0 00-.226-2.428L2.01 6.16l-.004-.038v-.01l-.001-.002h4.709zM4.247 8.57c-.034-.408-.068-.79-.1-1.13.503.16 1.107.342 1.769.525C7.738 8.467 10.099 9 12 9c1.901 0 4.262-.533 6.084-1.036a49.902 49.902 0 001.768-.525c-.031.34-.065.722-.099 1.13-.125 1.514-.253 3.423-.253 4.931 0 2.085.245 4.95.392 6.487v.007l-.002.003h-.001a.017.017 0 01-.003.003H4.114a.017.017 0 01-.006-.008v-.005c.147-1.537.392-4.402.392-6.487 0-1.508-.128-3.417-.253-4.93zM10 13a1 1 0 10-2 0 4 4 0 108 0 1 1 0 10-2 0 2 2 0 01-4 0z"/>
</svg>
